src/renderer/assets/icon/speed-default-icon.svg

<?xml version="1.0" encoding="UTF-8"?>
<svg width="8px" height="6px" viewBox="0 0 8 6" version="1.1" xmlns="http://www.w3.org/2000/svg" xmlns:xlink="http://www.w3.org/1999/xlink">
    <!-- Generator: Sketch 52.2 (67145) - http://www.bohemiancoding.com/sketch -->
    <desc>Created with Sketch.</desc>
    <g id="Artboard" stroke="none" stroke-width="1" fill="none" fill-rule="evenodd" opacity="0.4">
        <path d="M3.23510418,2.46970119 C3.40531255,2.60907894 3.5,2.79746002 3.5,2.99982168 C3.5,3.20253998 3.406518,3.39084973 3.23630963,3.53015615 C3.12283738,3.62302709 2.27093163,4.31775217 0.680592388,5.61433138 C0.571921818,5.70306522 0.459514379,5.75 0.36157224,5.75 C0.145918719,5.75 0,5.53051928 0,5.19106242 C0,4.22251365 0,3.49610206 0,3.01182768 C0,2.52228069 0,1.78796022 0,0.808866251 C0,0.469266733 0.145918719,0.25 0.36157224,0.25 C0.459514379,0.25 0.572102635,0.296720791 0.680592388,0.385525957 L3.23510418,2.46970119 Z M7.73529412,2.46970119 C7.90537608,2.60907894 8,2.79746002 8,2.99982168 C8,3.20253998 7.90670203,3.39084973 7.73625844,3.53015615 L5.1808703,5.61440271 C5.0721432,5.70306522 4.95961909,5.75 4.86168033,5.75 C4.64615477,5.75 4.5,5.53051928 4.5,5.19106242 L4.5,0.808866251 C4.5,0.469266733 4.64615477,0.25 4.86168033,0.25 C4.95961909,0.25 5.07226374,0.296720791 5.18081003,0.385525957 L7.73529412,2.46970119 Z" id="Combined-Shape" fill="#FFFFFF"></path>
    </g>
</svg>

<svg width="8" height="6" xmlns="http://www.w3.org/2000/svg">
    <path d="M3.235 2.47c.17.14.265.327.265.53a.68.68 0 01-.264.53L.681 5.614a.527.527 0 01-.32.136C.147 5.75 0 5.53 0 5.191V.81C0 .469.146.25.362.25.46.25.572.297.68.386L3.235 2.47zm4.5 0c.17.14.265.327.265.53a.68.68 0 01-.264.53L5.181 5.614a.528.528 0 01-.32.136c-.215 0-.361-.22-.361-.559V.81c0-.34.146-.559.362-.559.098 0 .21.047.319.136L7.735 2.47z" fill="#FFF" fill-rule="evenodd" opacity=".4"/>
</svg>
